client/src/assets/cog-solid.svg

<?xml version="1.0" standalone="no"?>
<!DOCTYPE svg PUBLIC "-//W3C//DTD SVG 20010904//EN" "http://www.w3.org/TR/2001/REC-SVG-20010904/DTD/svg10.dtd">
<!-- Created using Krita: https://krita.org -->
<svg xmlns="http://www.w3.org/2000/svg" 
    xmlns:xlink="http://www.w3.org/1999/xlink"
    xmlns:krita="http://krita.org/namespaces/svg/krita"
    xmlns:sodipodi="http://sodipodi.sourceforge.net/DTD/sodipodi-0.dtd"
    width="122.88pt"
    height="122.88pt"
    viewBox="0 0 122.88 122.88">
<defs/>
<path id="shape0" transform="matrix(0.24 0 0 0.24 4.47453133575724 1.94377507026311)" fill="#b9bbbe" stroke-opacity="0" stroke="#000000" stroke-width="0" stroke-linecap="square" stroke-linejoin="bevel" d="M468.756 307.601L426.156 283.001C430.456 259.801 430.456 236.001 426.156 212.801L468.756 188.201C473.656 185.401 475.856 179.601 474.256 174.201C463.156 138.601 444.256 106.401 419.556 79.6009C415.756 75.5009 409.556 74.5009 404.756 77.3009L362.156 101.901C344.256 86.5009 323.656 74.6009 301.356 66.8009L301.356 17.7009C301.356 12.1009 297.456 7.20094 291.956 6.00094C255.256 -2.19906 217.656 -1.79906 182.756 6.00094C177.256 7.20094 173.356 12.1009 173.356 17.7009L173.356 66.9009C151.156 74.8009 130.556 86.7009 112.556 102.001L70.0561 77.4009C65.1561 74.6009 59.0561 75.5009 55.2561 79.7009C30.5561 106.401 11.6561 138.601 0.556119 174.301C-1.14388 179.701 1.15612 185.501 6.05612 188.301L48.6561 212.901C44.3561 236.101 44.3561 259.901 48.6561 283.101L6.05612 307.701C1.15612 310.501 -1.04388 316.301 0.556119 321.701C11.6561 357.301 30.5561 389.501 55.2561 416.301C59.0561 420.401 65.2561 421.401 70.0561 418.601L112.656 394.001C130.556 409.401 151.156 421.301 173.456 429.101L173.456 478.301C173.456 483.901 177.356 488.801 182.856 490.001C219.556 498.201 257.156 497.801 292.056 490.001C297.556 488.801 301.456 483.901 301.456 478.301L301.456 429.101C323.656 421.201 344.256 409.301 362.256 394.001L404.856 418.601C409.756 421.401 415.856 420.501 419.656 416.301C444.356 389.601 463.256 357.401 474.356 321.701C475.856 316.201 473.656 310.401 468.756 307.601ZM237.356 327.901C193.256 327.901 157.356 292.001 157.356 247.901C157.356 203.801 193.256 167.901 237.356 167.901C281.456 167.901 317.356 203.801 317.356 247.901C317.356 292.001 281.456 327.901 237.356 327.901Z" sodipodi:nodetypes="cccccccccccccccccccccccccccccccccccccccccc"/>
</svg>

<?xml version="1.0" encoding="UTF-8"?>
<!DOCTYPE svg  PUBLIC '-//W3C//DTD SVG 20010904//EN'  'http://www.w3.org/TR/2001/REC-SVG-20010904/DTD/svg10.dtd'>
<svg width="122.88pt" height="122.88pt" viewBox="0 0 122.88 122.88" xmlns="http://www.w3.org/2000/svg">
<path transform="matrix(.24 0 0 .24 4.4745 1.9438)" d="m468.76 307.6-42.6-24.6c4.3-23.2 4.3-47 0-70.2l42.6-24.6c4.9-2.8 7.1-8.6 5.5-14-11.1-35.6-30-67.8-54.7-94.6-3.8-4.1-10-5.1-14.8-2.3l-42.6 24.6c-17.9-15.4-38.5-27.3-60.8-35.1v-49.1c0-5.6-3.9-10.5-9.4-11.7-36.7-8.2-74.3-7.8-109.2 0-5.5 1.2-9.4 6.1-9.4 11.7v49.2c-22.2 7.9-42.8 19.8-60.8 35.1l-42.5-24.6c-4.9-2.8-11-1.9-14.8 2.3-24.7 26.7-43.6 58.9-54.7 94.6-1.7 5.4 0.6 11.2 5.5 14l42.6 24.6c-4.3 23.2-4.3 47 0 70.2l-42.6 24.6c-4.9 2.8-7.1 8.6-5.5 14 11.1 35.6 30 67.8 54.7 94.6 3.8 4.1 10 5.1 14.8 2.3l42.6-24.6c17.9 15.4 38.5 27.3 60.8 35.1v49.2c0 5.6 3.9 10.5 9.4 11.7 36.7 8.2 74.3 7.8 109.2 0 5.5-1.2 9.4-6.1 9.4-11.7v-49.2c22.2-7.9 42.8-19.8 60.8-35.1l42.6 24.6c4.9 2.8 11 1.9 14.8-2.3 24.7-26.7 43.6-58.9 54.7-94.6 1.5-5.5-0.7-11.3-5.6-14.1zm-231.4 20.3c-44.1 0-80-35.9-80-80s35.9-80 80-80 80 35.9 80 80-35.9 80-80 80z" fill="#b9bbbe" stroke="#000" stroke-linecap="square" stroke-linejoin="bevel" stroke-opacity="0" stroke-width="0"/>
</svg>
